X:250
T: LASST UNS IHR BRUEDER WEISHEIT ERHOEHN
N: B0298
O: Europa, Mitteleuropa, Deutschland
R: Stimmungs - Lied, Freude, Freundschaft, Freimaurer - Gesang
M: 3/4
L: 1/8
K: G
 | G2B2dB | A2F2D2 |
G2BGdB | A4z2 |
c2c2c2 | B3AG2 |
A2G2F2 | GABcd2 |
e2e2e2 | d3cB2 |
dcB2A2 | G4z2

@@@ Tune index: 2053
